svg/blobs-icons/no-decorations/hourglass.svg

<svg xmlns="http://www.w3.org/2000/svg" xmlns:xlink="http://www.w3.org/1999/xlink" preserveAspectRatio="xMidYMid" width="131" height="217" viewBox="0 0 131 217"><defs><style>.cls-3{fill:#142a3b}.cls-9{fill:#fff}.cls-13{fill:#ff3a2f}.cls-15{fill:#fbb713}.cls-16{fill:#010101;opacity:.25}.cls-19{fill:#010101;opacity:.35}</style></defs><g id="group-161svg"><path d="M120.828 209.477s4.464.0 4.464.0.0-202.075.0-202.075-4.464.0-4.464.0-2.233.0-2.233.0.0 202.075.0 202.075 2.233.0 2.233.0z" id="path-1" class="cls-3" fill-rule="evenodd"/><path d="M6.632 209.477s4.464.0 4.464.0.0-202.075.0-202.075-4.464.0-4.464.0-2.233.0-2.233.0.0 202.075.0 202.075 2.233.0 2.233.0z" id="path-2" class="cls-3" fill-rule="evenodd"/><path d="M81.954 91.037C83.572 89.514 85.401 88.074 87.409 86.725 85.279 88.059 83.472 89.521 81.954 91.037z" id="path-3" class="cls-3" fill-rule="evenodd"/><path d="M87.409 130.144C85.401 128.796 83.572 127.356 81.954 125.834 83.472 127.35 85.279 128.812 87.409 130.144z" id="path-4" class="cls-3" fill-rule="evenodd"/><path d="M48.086 125.836C46.472 127.356 44.648 128.79 42.648 130.135 44.772 128.806 46.572 127.35 48.086 125.836z" id="path-5" class="cls-3" fill-rule="evenodd"/><path d="M42.648 86.735C44.648 88.081 46.472 89.514 48.086 91.034 46.572 89.521 44.772 88.064 42.648 86.735z" id="path-6" class="cls-3" fill-rule="evenodd"/><path d="M90.634 84.938C92.464 84.048 94.187 83.102 95.83 82.11 92.76 83.481 89.941 85.027 87.409 86.725 88.411 86.099 89.478 85.498 90.634 84.938z" id="path-7" class="cls-9" fill-rule="evenodd"/><path d="M87.409 130.144C89.941 131.843 92.76 133.388 95.83 134.759 94.187 133.767 92.464 132.822 90.634 131.932 89.478 131.373 88.411 130.771 87.409 130.144z" id="path-8" class="cls-9" fill-rule="evenodd"/><path d="M39.409 131.932C37.579 132.822 35.854 133.767 34.212 134.759 37.288 133.388 40.112 131.836 42.648 130.135 41.643 130.765 40.57 131.369 39.409 131.932z" id="path-9" class="cls-9" fill-rule="evenodd"/><path d="M42.648 86.735C40.112 85.033 37.288 83.481 34.212 82.11 35.854 83.102 37.579 84.048 39.409 84.938 40.57 85.501 41.643 86.105 42.648 86.735z" id="path-10" class="cls-9" fill-rule="evenodd"/><path d="M.074 213.576C.104 213.798.118 214.025.181 214.236.186 214.222.195 214.21.2 214.197c.45 1.535 1.814 2.678 3.493 2.678H126.348C128.047 216.875 129.418 215.709 129.853 214.15 129.863 214.181 129.885 214.205 129.893 214.236 129.995 213.899 130.065 213.548 130.065 213.177 130.065 211.132 128.408 209.475 126.365 209.475H126.348s-122.639.0-122.639.0-.016.0-.016.0C1.652 209.475-.006 211.132-.006 213.177-.006 213.319.059 213.439.074 213.576z" id="path-11" class="cls-13" fill-rule="evenodd"/><path d="M3.693 7.395s122.655.0 122.655.0C128.393 7.395 130.05 5.739 130.05 3.694 130.05 1.65 128.393-.004 126.348-.004H3.693C1.652-.004-.006 1.65-.006 3.694c0 2.045 1.658 3.701 3.699 3.701z" id="path-12" class="cls-13" fill-rule="evenodd"/><path d="M42.648 130.135C40.112 131.836 37.288 133.388 34.212 134.759 21.099 142.684 14.033 154.184 14.033 174.231c0 22.555.0 35.244.0 35.244s.016.0.016.0S14.049 209.477 14.049 209.477s17.623.0 17.623.0 25.025.0 25.025.0S56.697 209.475 56.697 209.475s6.68.0 6.68.0S66.666 209.475 66.666 209.475s6.712.0 6.712.0S73.378 209.477 73.378 209.477s25.025.0 25.025.0S98.403 209.475 98.403 209.475s17.607.0 17.607.0.0-12.689.0-35.244c0-20.047-7.066-31.55-20.18-39.472C92.76 133.388 89.941 131.843 87.409 130.144 85.279 128.812 83.472 127.35 81.954 125.834 76.584 120.777 73.481 114.818 73.481 108.435 73.481 102.053 76.584 96.093 81.954 91.038 83.472 89.521 85.279 88.059 87.409 86.725 89.941 85.027 92.76 83.481 95.83 82.11 108.944 74.189 116.01 62.687 116.01 42.64c0-22.557.0-35.245.0-35.245s-49.344.0-49.344.0S63.377 7.395 63.377 7.395s-49.344.0-49.344.0.0 12.688.0 35.245c0 20.047 7.066 31.546 20.179 39.47C37.288 83.481 40.112 85.033 42.648 86.734 44.772 88.064 46.572 89.521 48.086 91.034c5.371 5.056 8.476 11.016 8.476 17.401C56.562 114.82 53.457 120.78 48.086 125.836 46.572 127.35 44.772 128.806 42.648 130.135z" id="path-13" class="cls-15" fill-rule="evenodd"/><path d="M98.403 7.402s0 12.691.0 35.248C98.403 62.697 93.779 74.196 85.199 82.117 83.187 83.487 81.345 85.036 79.688 86.735 78.292 88.067 77.111 89.527 76.118 91.047 72.606 96.103 70.572 102.059 70.572 108.442 70.572 114.827 72.606 120.784 76.118 125.839 77.111 127.358 78.292 128.819 79.688 130.151 81.345 131.849 83.187 133.398 85.199 134.765 93.779 142.69 98.403 154.189 98.403 174.237c0 22.511.0 35.191.0 35.24h17.623s0-12.688.0-35.246c0-20.047-7.066-31.548-20.181-39.472C92.776 133.392 89.957 131.846 87.425 130.144 85.293 128.816 83.486 127.356 81.969 125.836 76.601 120.78 73.497 114.82 73.497 108.439 73.497 102.055 76.601 96.096 81.969 91.041 83.486 89.521 85.293 88.06 87.425 86.729c2.532-1.699 5.351-3.248 8.42-4.615C108.96 74.192 116.026 62.691 116.026 42.645c0-22.558.0-35.247.0-35.247s-42.648.0-42.648.0S73.378 7.402 73.378 7.402s25.025.0 25.025.0z" id="path-14" class="cls-16" fill-rule="evenodd"/><path d="M47.374 77.842C46.736 77.842 46.093 77.674 45.508 77.321 30.344 68.162 23.583 55.037 23.583 34.76l3.601-9.773s3.627 9.773 3.627 9.773c0 17.691 5.514 28.569 18.435 36.373C50.955 72.165 51.504 74.388 50.471 76.096 49.791 77.221 48.598 77.842 47.374 77.842zM29.927 17.541s.884-2.399.884-2.399C30.811 16.048 30.478 16.889 29.927 17.541z" id="path-15" class="cls-9" fill-rule="evenodd"/><path d="M30.811 201.734S29.878 199.197 29.878 199.197C30.459 199.822 30.811 200.657 30.811 201.591V201.734zm-3.614-9.809s-3.614-9.809-3.614-9.809c0-20.274 6.761-33.401 21.925-42.564L45.905 139.344C48.773 138.067 51.422 136.615 53.782 135.031 55.436 133.918 57.686 134.357 58.798 136.015 59.912 137.673 59.471 139.918 57.814 141.031 55.169 142.809 52.225 144.429 49.061 145.853 36.272 153.654 30.811 164.512 30.811 182.116l-3.614 9.809z" id="path-16" class="cls-9" fill-rule="evenodd"/><path d="M116.01 209.632S90.515 209.71 65.021 209.788C39.527 209.71 14.033 209.632 14.033 209.632S14.033 209.319 14.033 209.319 15.627 209.082 18.415 208.8C21.204 208.586 25.187 208.057 29.967 207.821 34.747 207.604 40.324 207.099 46.299 207.011 52.274 206.898 58.648 206.781 65.021 206.662 71.395 206.781 77.768 206.902 83.744 207.014 89.72 207.116 95.296 207.606 100.076 207.826 104.856 208.068 108.839 208.588 111.628 208.802 114.416 209.084 116.01 209.319 116.01 209.319S116.01 209.632 116.01 209.632z" id="path-17" class="cls-19" fill-rule="evenodd"/><path d="M116.01 7.395s-101.977.0-101.977.0.0 6.313.0 6.313S116.01 21.595 116.01 21.595s0-14.2.0-14.2z" id="path-18" class="cls-19" fill-rule="evenodd"/></g></svg>

<svg xmlns="http://www.w3.org/2000/svg" xmlns:xlink="http://www.w3.org/1999/xlink" preserveAspectRatio="xMidYMid" width="131" height="217" viewBox="0 0 131 217">
  <defs>
    <style>

      .cls-3 {
        fill: #142a3b;
      }

      .cls-9 {
        fill: #ffffff;
      }

      .cls-13 {
        fill: #ff3a2f;
      }

      .cls-15 {
        fill: #fbb713;
      }

      .cls-16 {
        fill: #010101;
        opacity: 0.25;
      }

      .cls-19 {
        fill: #010101;
        opacity: 0.35;
      }
    </style>
  </defs>
  <g id="group-161svg">
    <path d="M120.828,209.477 C120.828,209.477 125.292,209.477 125.292,209.477 C125.292,209.477 125.292,7.402 125.292,7.402 C125.292,7.402 120.828,7.402 120.828,7.402 C120.828,7.402 118.595,7.402 118.595,7.402 C118.595,7.402 118.595,209.477 118.595,209.477 C118.595,209.477 120.828,209.477 120.828,209.477 Z" id="path-1" class="cls-3" fill-rule="evenodd"/>
    <path d="M6.632,209.477 C6.632,209.477 11.096,209.477 11.096,209.477 C11.096,209.477 11.096,7.402 11.096,7.402 C11.096,7.402 6.632,7.402 6.632,7.402 C6.632,7.402 4.399,7.402 4.399,7.402 C4.399,7.402 4.399,209.477 4.399,209.477 C4.399,209.477 6.632,209.477 6.632,209.477 Z" id="path-2" class="cls-3" fill-rule="evenodd"/>
    <path d="M81.954,91.037 C83.572,89.514 85.401,88.074 87.409,86.725 C85.279,88.059 83.472,89.521 81.954,91.037 Z" id="path-3" class="cls-3" fill-rule="evenodd"/>
    <path d="M87.409,130.144 C85.401,128.796 83.572,127.356 81.954,125.834 C83.472,127.350 85.279,128.812 87.409,130.144 Z" id="path-4" class="cls-3" fill-rule="evenodd"/>
    <path d="M48.086,125.836 C46.472,127.356 44.648,128.790 42.648,130.135 C44.772,128.806 46.572,127.350 48.086,125.836 Z" id="path-5" class="cls-3" fill-rule="evenodd"/>
    <path d="M42.648,86.735 C44.648,88.081 46.472,89.514 48.086,91.034 C46.572,89.521 44.772,88.064 42.648,86.735 Z" id="path-6" class="cls-3" fill-rule="evenodd"/>
    <path d="M90.634,84.938 C92.464,84.048 94.187,83.102 95.830,82.110 C92.760,83.481 89.941,85.027 87.409,86.725 C88.411,86.099 89.478,85.498 90.634,84.938 Z" id="path-7" class="cls-9" fill-rule="evenodd"/>
    <path d="M87.409,130.144 C89.941,131.843 92.760,133.388 95.830,134.759 C94.187,133.767 92.464,132.822 90.634,131.932 C89.478,131.373 88.411,130.771 87.409,130.144 Z" id="path-8" class="cls-9" fill-rule="evenodd"/>
    <path d="M39.409,131.932 C37.579,132.822 35.854,133.767 34.212,134.759 C37.288,133.388 40.112,131.836 42.648,130.135 C41.643,130.765 40.570,131.369 39.409,131.932 Z" id="path-9" class="cls-9" fill-rule="evenodd"/>
    <path d="M42.648,86.735 C40.112,85.033 37.288,83.481 34.212,82.110 C35.854,83.102 37.579,84.048 39.409,84.938 C40.570,85.501 41.643,86.105 42.648,86.735 Z" id="path-10" class="cls-9" fill-rule="evenodd"/>
    <path d="M0.074,213.576 C0.104,213.798 0.118,214.025 0.181,214.236 C0.186,214.222 0.195,214.210 0.200,214.197 C0.650,215.732 2.014,216.875 3.693,216.875 C3.693,216.875 126.348,216.875 126.348,216.875 C128.047,216.875 129.418,215.709 129.853,214.150 C129.863,214.181 129.885,214.205 129.893,214.236 C129.995,213.899 130.065,213.548 130.065,213.177 C130.065,211.132 128.408,209.475 126.365,209.475 C126.365,209.475 126.348,209.475 126.348,209.475 C126.348,209.475 3.709,209.475 3.709,209.475 C3.709,209.475 3.693,209.475 3.693,209.475 C1.652,209.475 -0.006,211.132 -0.006,213.177 C-0.006,213.319 0.059,213.439 0.074,213.576 Z" id="path-11" class="cls-13" fill-rule="evenodd"/>
    <path d="M3.693,7.395 C3.693,7.395 126.348,7.395 126.348,7.395 C128.393,7.395 130.050,5.739 130.050,3.694 C130.050,1.650 128.393,-0.004 126.348,-0.004 C126.348,-0.004 3.693,-0.004 3.693,-0.004 C1.652,-0.004 -0.006,1.650 -0.006,3.694 C-0.006,5.739 1.652,7.395 3.693,7.395 Z" id="path-12" class="cls-13" fill-rule="evenodd"/>
    <path d="M42.648,130.135 C40.112,131.836 37.288,133.388 34.212,134.759 C21.099,142.684 14.033,154.184 14.033,174.231 C14.033,196.786 14.033,209.475 14.033,209.475 C14.033,209.475 14.049,209.475 14.049,209.475 C14.049,209.475 14.049,209.477 14.049,209.477 C14.049,209.477 31.672,209.477 31.672,209.477 C31.672,209.477 56.697,209.477 56.697,209.477 C56.697,209.477 56.697,209.475 56.697,209.475 C56.697,209.475 63.377,209.475 63.377,209.475 C63.377,209.475 66.666,209.475 66.666,209.475 C66.666,209.475 73.378,209.475 73.378,209.475 C73.378,209.475 73.378,209.477 73.378,209.477 C73.378,209.477 98.403,209.477 98.403,209.477 C98.403,209.477 98.403,209.475 98.403,209.475 C98.403,209.475 116.010,209.475 116.010,209.475 C116.010,209.475 116.010,196.786 116.010,174.231 C116.010,154.184 108.944,142.681 95.830,134.759 C92.760,133.388 89.941,131.843 87.409,130.144 C85.279,128.812 83.472,127.350 81.954,125.834 C76.584,120.777 73.481,114.818 73.481,108.435 C73.481,102.053 76.584,96.093 81.954,91.038 C83.472,89.521 85.279,88.059 87.409,86.725 C89.941,85.027 92.760,83.481 95.830,82.110 C108.944,74.189 116.010,62.687 116.010,42.640 C116.010,20.083 116.010,7.395 116.010,7.395 C116.010,7.395 66.666,7.395 66.666,7.395 C66.666,7.395 63.377,7.395 63.377,7.395 C63.377,7.395 14.033,7.395 14.033,7.395 C14.033,7.395 14.033,20.083 14.033,42.640 C14.033,62.687 21.099,74.186 34.212,82.110 C37.288,83.481 40.112,85.033 42.648,86.734 C44.772,88.064 46.572,89.521 48.086,91.034 C53.457,96.090 56.562,102.050 56.562,108.435 C56.562,114.820 53.457,120.780 48.086,125.836 C46.572,127.350 44.772,128.806 42.648,130.135 Z" id="path-13" class="cls-15" fill-rule="evenodd"/>
    <path d="M98.403,7.402 C98.403,7.402 98.403,20.093 98.403,42.650 C98.403,62.697 93.779,74.196 85.199,82.117 C83.187,83.487 81.345,85.036 79.688,86.735 C78.292,88.067 77.111,89.527 76.118,91.047 C72.606,96.103 70.572,102.059 70.572,108.442 C70.572,114.827 72.606,120.784 76.118,125.839 C77.111,127.358 78.292,128.819 79.688,130.151 C81.345,131.849 83.187,133.398 85.199,134.765 C93.779,142.690 98.403,154.189 98.403,174.237 C98.403,196.748 98.403,209.428 98.403,209.477 C98.403,209.477 116.026,209.477 116.026,209.477 C116.026,209.477 116.026,196.789 116.026,174.231 C116.026,154.184 108.960,142.683 95.845,134.759 C92.776,133.392 89.957,131.846 87.425,130.144 C85.293,128.816 83.486,127.356 81.969,125.836 C76.601,120.780 73.497,114.820 73.497,108.439 C73.497,102.055 76.601,96.096 81.969,91.041 C83.486,89.521 85.293,88.060 87.425,86.729 C89.957,85.030 92.776,83.481 95.845,82.114 C108.960,74.192 116.026,62.691 116.026,42.645 C116.026,20.087 116.026,7.398 116.026,7.398 C116.026,7.398 73.378,7.398 73.378,7.398 C73.378,7.398 73.378,7.402 73.378,7.402 C73.378,7.402 98.403,7.402 98.403,7.402 Z" id="path-14" class="cls-16" fill-rule="evenodd"/>
    <path d="M47.374,77.842 C46.736,77.842 46.093,77.674 45.508,77.321 C30.344,68.162 23.583,55.037 23.583,34.760 C23.583,34.760 27.184,24.987 27.184,24.987 C27.184,24.987 30.811,34.760 30.811,34.760 C30.811,52.451 36.325,63.329 49.246,71.133 C50.955,72.165 51.504,74.388 50.471,76.096 C49.791,77.221 48.598,77.842 47.374,77.842 ZM29.927,17.541 C29.927,17.541 30.811,15.142 30.811,15.142 C30.811,16.048 30.478,16.889 29.927,17.541 Z" id="path-15" class="cls-9" fill-rule="evenodd"/>
    <path d="M30.811,201.734 C30.811,201.734 29.878,199.197 29.878,199.197 C30.459,199.822 30.811,200.657 30.811,201.591 C30.811,201.591 30.811,201.734 30.811,201.734 ZM27.197,191.925 C27.197,191.925 23.583,182.116 23.583,182.116 C23.583,161.842 30.344,148.715 45.508,139.552 C45.508,139.552 45.905,139.344 45.905,139.344 C48.773,138.067 51.422,136.615 53.782,135.031 C55.436,133.918 57.686,134.357 58.798,136.015 C59.912,137.673 59.471,139.918 57.814,141.031 C55.169,142.809 52.225,144.429 49.061,145.853 C36.272,153.654 30.811,164.512 30.811,182.116 C30.811,182.116 27.197,191.925 27.197,191.925 Z" id="path-16" class="cls-9" fill-rule="evenodd"/>
    <path d="M116.010,209.632 C116.010,209.632 90.515,209.710 65.021,209.788 C39.527,209.710 14.033,209.632 14.033,209.632 C14.033,209.632 14.033,209.319 14.033,209.319 C14.033,209.319 15.627,209.082 18.415,208.800 C21.204,208.586 25.187,208.057 29.967,207.821 C34.747,207.604 40.324,207.099 46.299,207.011 C52.274,206.898 58.648,206.781 65.021,206.662 C71.395,206.781 77.768,206.902 83.744,207.014 C89.720,207.116 95.296,207.606 100.076,207.826 C104.856,208.068 108.839,208.588 111.628,208.802 C114.416,209.084 116.010,209.319 116.010,209.319 C116.010,209.319 116.010,209.632 116.010,209.632 Z" id="path-17" class="cls-19" fill-rule="evenodd"/>
    <path d="M116.010,7.395 C116.010,7.395 14.033,7.395 14.033,7.395 C14.033,7.395 14.033,13.708 14.033,13.708 C14.033,13.708 116.010,21.595 116.010,21.595 C116.010,21.595 116.010,7.395 116.010,7.395 Z" id="path-18" class="cls-19" fill-rule="evenodd"/>
  </g>
</svg>
